!!!!SEGMENT: pl-wn--mus-iii-75-272-4_zelenski-wladyslaw--piesni-kazimierza-tetmajera-blada-roza.krn
!!!cenid: 18xx:3766
!!!COM: Żeleński, Władysław
!!!COM-rismID: pe41024455
!!!CDT: 1837/07/06-1921/01/23
!!!CNT: Polish
!!!OTL: Pieśni Kazimierza Tetmajera/Blada róża
!!!PDT:
!!!AGN:
!!!SMS-siglum: PL-Wn
!!!SMS-shelfmark: Mus.III.75.272/4
!!!SMS-shelfwork: W
!!!SMS-variant:
!!!SMS-altvar:
!!!NIFC-rismSourceID:
!!!NIFC-rismChildID:
!!!NIFC-islandoraID: none
!!!URL-pdf-islandora:
!!!URL-scan: https://polona.pl/item/piesni-kazimierza-tetmajera-4-blada-roza,NzEzNTMxMTM/0 @EN{Scan on Polona} @PL{Skany w portalu Polona}
!!!ONB-nifc:
!!!OMD: Andantino sostenuto.
!!!AIN: 1 piano 1 vox
!!!key: f#
**kern	**kern	**dynam	**kern	**text	**dynam
*part2	*part2	*part2	*part1	*part1	*part1
*staff3	*staff2	*	*staff1	*staff1	*
*I"FORTEPIAN.	*I"FORTEPIAN.	*	*I"ŚPIEW.	*	*
*Ipiano	*Ipiano	*	*Ivox	*	*
*ICklav	*ICklav	*	*ICvox	*	*
*IGacmp	*IGacmp	*	*IGsolo	*	*
*clefF4	*clefG2	*	*clefG2	*	*
*k[f#c#g#]	*k[f#c#g#]	*	*k[f#c#g#]	*	*
*f#:	*f#:	*	*f#:	*	*
*M3/4	*M3/4	*	*M3/4	*	*
=1	=1	=1	=1	=1	=1
*xywh-#3:271,370,2272,1020	*xywh-#3:271,370,2272,1020	*	*xywh-#3:271,370,2272,1020	*xywh-#3:271,370,2272,1020	*
4FF#/	8.r	p	2.r	.	.
!	!LO:TX:b:i:t=semplice	!	!	!	!
.	(16cc#\	.	.	.	.
4e 4c# 4F#\	8a/L)	.	.	.	.
.	(8e#X/	.	.	.	.
4e 4c# 4F#\	8f#/	.	.	.	.
.	8a/J	.	.	.	.
=2	=2	=2	=2	=2	=2
4BB/	8.g#/L)	.	2.r	.	.
.	(16f#/Jk	.	.	.	.
4d#X 4B 4A\	4.b/	.	.	.	.
4d# 4B 4A\	.	.	.	.	.
.	8a/	.	.	.	.
=3	=3	=3	=3	=3	=3
4EE/	8g#/)	<	2.r	.	.
.	4b/	.	.	.	.
4d 4A 4E\	.	.	.	.	.
.	8cc#\	.	.	.	.
4d 4F# 4E\	8.ee\L	.	.	.	.
.	16dd\Jk	[[	.	.	.
=4	=4	=4	=4	=4	=4
!	!	!LO:HP:t=poco cresc.	!	!	!
4EE#X/	4.cc#\	<	2.r	.	.
4c# 4G# 4E#X\	.	.	.	.	.
.	(8g#/	.	.	.	.
4d 4A 4F#\	8a/L	.	.	.	.
.	(8qcc#/	.	.	.	.
.	8b/J)	.	.	.	.
!!LO:LB:g=original
=5	=5	=5	=5	=5	=5
*xywh-#3:231,1424,2335,702	*xywh-#3:231,1424,2335,702	*xywh-#3:231,1424,2335,702	*xywh-#3:231,1424,2335,702	*xywh-#3:231,1424,2335,702	*
4EE#X/	4.cc#\)	.	2.r	.	.
!	!LO:TX:b:i:t=poco rit.	!	!	!	!
4c# 4G# 4E#X\	.	.	.	.	.
.	(8g#/	.	.	.	.
4B#X 4A 4F#\	12a\L	.	.	.	.
.	12ee\	.	.	.	.
.	12dd\J	.	.	.	.
=6	=6	=6	=6	=6	=6
4EE#X/	[2.cc#;\)	>]	4r	.	.
[4c# [4G# [4E#X;\	.	.	4.cc#;\	Na	.
8c#] 8G#] 8E#\]	.	.	.	.	.
8r	.	.	8a/	me	.
=7	=7	=7	=7	=7	=7
!	!	!	!LO:TX:a:i:t=a tempo	!	!
4FF#/	8cc#\]	p	4g#/	o-	.
.	8r	.	.	.	.
4r	4a 4f# 4c#/	.	4f#/	-czy	.
4r	4f# 4c# 4A/	.	8a/	czar	.
.	.	.	8cc#\	u-	.
=8	=8	=8	=8	=8	=8
4C# 4CC#/	4r	.	4.ee\	-ro-	.
4r	4a 4e 4A/	.	.	.	.
.	.	.	8dd#X\	-czy	.
4F# 4FF#/	4a 4d 4A/	.	8ddn\	Chy-	.
.	.	.	8a/	-ba	.
=9	=9	=9	=9	=9	=9
4E 4EE/	4r	.	4.cc#\	ja-	.
4r	4g# 4c# 4A/	.	.	.	.
.	.	.	8f#/	-kiś	.
4D 4DD/	4f# 4d 4A/	.	8g#/	z_nie-	.
.	.	.	8a/	-ba	.
!!LO:LB:g=original
=10	=10	=10	=10	=10	=10
*xywh-#3:243,2144,2318,748	*xywh-#3:243,2144,2318,748	*	*xywh-#3:243,2144,2318,748	*xywh-#3:243,2144,2318,748	*
4AA 4AAA/	4r	.	[4cc#\	spadł,	.
4r	4e 4c# 4A/	.	8cc#\]	.	.
.	.	.	8r	.	.
!	!	!	!LO:TX:a:i:t=poco animato	!	!
4r	4e 4c# 4A/	.	8a/	Gdzie	.
.	.	.	8cc#\	je	.
=11	=11	=11	=11	=11	=11
4D 4DD/	4r	.	4b\	zwró-	.
4r	4f# 4B 4F#/	.	4f#/	-cę,	.
4r	4e 4A#X 4F#/	.	8cc#\	gdzie	.
.	.	.	8ee\	wzrok	.
=12	=12	=12	=12	=12	=12
4BB 4BBB/	4r	.	4dd\	rzu-	.
4r	4d 4B 4F#/	.	4f#/	-cę,	.
4r	4e 4A#X 4Gn/	.	8a#X/	Bla-	.
.	.	.	8cc#\	-dej	.
=13	=13	=13	=13	=13	=13
4BB 4BBB/	4r	.	4.b\	ró-	.
4r	4d 4B 4F#/	.	.	.	.
!	!	!	!	!	!LO:HP:a
.	.	.	8cc#\	-ży	<
4C# 4CC#/	4e 4A#X 4F#/	.	8ee\	wi-	.
.	.	.	8dd\	-dzę,	.
=14	=14	=14	=14	=14	=14
4D 4DD/	4r	.	2ff#\	kwiat,	[
4r	4f# 4B 4F#/	.	.	.	.
4r	4f# 4B 4F#/	.	8g#/	bla-	.
.	.	.	8a/	-dej	.
!!LO:LB:g=original
=15	=15	=15	=15	=15	=15
*xywh-#3:237,2875,2335,697	*xywh-#3:237,2875,2335,697	*	*xywh-#3:237,2875,2335,697	*xywh-#3:237,2875,2335,697	*
!	!	!	!	!	!LO:HP:a
4D#X 4DD#X/	4r	.	[2ccn\	ró-	>
!	!LO:TX:b:i:t=riten.	!	!	!	!
4r	4fn 4cn 4A/	.	.	.	.
4r	4f 4c 4A/	.	8.cc\]	.	.
.	.	.	16b\	-ży	.
=16	=16	=16	=16	=16	=16
!	!LO:TX:a:i:t=a tempo	!	!	!	!
4E 4EE/	8.r	.	[4b\	kwiat.	.
.	16fn/	.	.	.	]
4dn 4A 4E\	[2b\	<	8b\]	.	.
.	.	.	8r	.	.
4d 4A 4E\	.	.	4r	.	.
=17	=17	=17	=17	=17	=17
4EE/	8b\L]	.	2.r	.	.
.	(8cc#\J	[	.	.	.
.	(8qee/	.	.	.	.
4d 4A 4E\	8dd/L))	.	.	.	.
.	(8f#X/	>	.	.	.
4d 4G# 4E\	8g#/	.	.	.	.
.	8b/J	.	.	.	.
=18	=18	=18	=18	=18	=18
!	!	!	!LO:TX:a:i:t=poco piu mosso	!	!
4AA/	8cc#/L)	.	4r	.	.
.	8e 8c# 8A/	]	.	.	.
4r	8e 8c# 8A/	.	4.cc#\	O-	.
.	8eJ 8c# 8A/	.	.	.	.
4r	8f#L 8c# 8A/	.	.	.	.
.	8f#J 8c# 8A/	.	8f#/	-czy	.
=19	=19	=19	=19	=19	=19
4BB 4BBB/	8f#L 8d 8A/	.	4a/	mru-	.
.	8f#J 8d 8A/	.	.	.	.
4r	8g#L 8d 8B/	.	4g#/	-żę	.
.	8g#J 8d 8B/	.	.	.	.
4r	8f#L 8d 8A/	.	4r	.	.
.	8f#J 8d 8A/	.	.	.	.
!!LO:PB:g=original
=20	=20	=20	=20	=20	=20
*xywh-#4:397,467,2336,777	*xywh-#4:397,467,2336,777	*xywh-#4:397,467,2336,777	*xywh-#4:397,467,2336,777	*xywh-#4:397,467,2336,777	*
[2.C# [2.CC#/	8eL 8c# 8G#/	.	4r	.	.
.	8e 8c# 8G#/	.	.	.	.
.	8f# 8e 8A/	.	4.ee\	bla-	.
.	8f# 8e 8A/	.	.	.	.
.	8g# 8e 8B/	.	.	.	.
.	8g#J 8e 8B/	.	8g#/	-dą	.
=21	=21	=21	=21	=21	=21
4C#] 4CC#/]	8g#L 8e 8B/	.	4b/	ró-	.
!	!	!	!	!	!LO:HP:a
.	8g# 8e 8B/	.	.	.	<
[2FF# [2FFF#/	8a 8e 8A/	.	4a/	-żę	.
.	8a 8e 8A/	.	.	.	.
.	8a 8e 8A/	.	8a/	bla-	.
.	8g#J 8e 8A/	.	8cc#\	-dą	[[
=22	=22	=22	=22	=22	=22
!	!	!	!	!	!LO:DY:a
4FF#] 4FFF#/]	8f#L 8d 8A/	f	4.ff#\	ró-	f
.	8f# 8d 8A/	.	.	.	.
(4FF#/	8f# 8c# 8A/	.	.	.	.
.	8e#X 8c# 8A/	.	8ee#X\	-żę	.
4GG#/	8en 8B 8G#/	.	8een\	wi-	.
.	8eJ 8B 8G#/	.	8b\	-dzę	.
=23	=23	=23	=23	=23	=23
2BB/)	8dL 8B 8F#/	>	8dd\L	cią-	.
.	8d 8B 8F#/	.	8cc#\J	.	.
.	8d 8B 8F#/	.	4b\	-gle	.
.	8d 8B 8F#/	.	.	.	.
!	!	!	!	!	!LO:HP:a
(4GG#/	8d 8B 8F#/	.	8b\	bla-	>
.	8dJ 8B 8F#/	]]	8dd\	-dą	]]
=24	=24	=24	=24	=24	=24
!	!	!	!	!	!LO:DY:a
4C#/)	8c#L 8G# 8E#X/	p	4.cc#\	ró-	p
.	8c# 8G# 8E#/	.	.	.	.
(4CC#/	8c# 8G# 8E#/	.	.	.	.
.	8B#X 8F# 8D#X/	.	8b#X\	-żę	.
4DDn/)	8Bn 8F# 8Dn/	.	8bn\	jak	.
.	8BJ 8F# 8D/	.	8f#/	i	.
!!LO:LB:g=original
=25	=25	=25	=25	=25	=25
*xywh-#4:401,1235,2332,739	*xywh-#4:401,1235,2332,739	*	*xywh-#4:401,1235,2332,739	*xywh-#4:401,1235,2332,739	*
[2.FF#/	8AL 8F# 8C#/	.	4a/	wprzód.	.
.	8A 8F# 8C#/	.	.	.	.
.	8A 8F# 8C#/	.	4r	.	.
.	8A 8F# 8C#/	.	.	.	.
!	!	!LO:HP:t=dim.	!	!	!
.	8c# 8A 8F#/	>	4r	.	.
.	8c#J 8A 8F#/	.	.	.	.
=26	=26	=26	=26	=26	=26
4FF#/]	8f#L 8c# 8A/	.	4r	.	.
.	8f# 8c# 8A/	.	.	.	.
4r	8f# 8c# 8A/	.	4r	.	.
.	8a 8f#/	.	.	.	.
!	!	!	!LO:TX:a:i:t=sotto voce	!	!
(4c#\	8a 8f#/	.	8cc#\	Się-	.
.	8aJ 8f#/	.	8cc#\	-gam	.
=27	=27	=27	=27	=27	=27
4e\	8aL 8f#/	.	4cc#\	do	.
.	8a 8f#/	.	.	.	.
4d#X\	8a 8f#/	.	4b#X\	niej,	.
.	8a 8f#/	.	.	.	.
4B#X\	8a 8f#/	.	8.ee\	się-	.
.	8aJ 8f#/	.	.	.	.
.	.	.	16dd#X\	-gam	.
=28	=28	=28	=28	=28	=28
[4c#\)	8aL 8f#/	.	4dd#X\	do	.
.	8a 8f#/	.	.	.	.
8c#\]	8g# 8e/	.	4cc#\	niej,	.
8r	8g# 8e/	.	.	.	.
4r	8b 8f# 8d#X/	.	8bn/	a-	.
.	8aJ 8e 8c#/	.	8a/	-le	.
=29	=29	=29	=29	=29	=29
!	!	!	!	!	!LO:HP:a
2.r	8g#L 8e 8B#X/	<	4.g#/	w_dło-	<
.	8g# 8e 8B#/	.	.	.	.
.	8g# 8e 8c#/	.	.	.	.
.	8g# 8e 8Bn/	.	8cc#\	-ni	.
.	8f# 8d#X 8A/	.	8dd#X\	za-	.
.	8f#J 8c# 8A/	[[	8ee\	-miast	[[
!!LO:LB:g=original
=30	=30	=30	=30	=30	=30
*xywh-#4:397,1993,2355,815	*xywh-#4:397,1993,2355,815	*xywh-#4:397,1993,2355,815	*xywh-#4:397,1993,2355,815	*xywh-#4:397,1993,2355,815	*
!	!	!	!	!	!LO:DY:a:rj
4r	8eL 8c# 8G#/	f	4.gg#\	kwia-	f
.	8e 8c# 8G#/	.	.	.	.
[2GG# [2GGG#/	8e 8c# 8G#/	.	.	.	.
.	8e 8c# 8G#/	.	8ee\	-tu	.
.	8e 8c# 8G#/	.	8cc#\	czu-	.
.	8eJ 8c# 8G#/	.	8g#/	-je	.
=31	=31	=31	=31	=31	=31
(4GG#] 4GGG#/]	8d#XL 8c# 8A/	>	2a/	lód	.
.	8d# 8c# 8A/	.	.	.	.
4FF# 4FFF#/)	8d# 8c# 8A/	.	.	.	.
.	8d# 8c# 8A/	.	.	.	.
!	!	!	!	!	!LO:DY:a:rj
4r	8d# 8c# 8A/	.	8a/	Za-	p
.	8d#J 8c# 8A/	]]	8b/	-miast	.
=32	=32	=32	=32	=32	=32
!	!	!	!	!	!LO:HP:a
4r	8d#XL 8c# 8A/	.	[2.cc#\	kwia-	<[
.	8d# 8c# 8A/	.	.	.	.
(4D#X 4DD#X/	8f# 8c# 8A/	.	.	.	.
.	8f# 8c# 8A/	<	.	.	.
4E 4EE/	8e 8c# 8A/	.	.	.	.
.	8eJ 8c# 8A/	.	.	.	.
=33	=33	=33	=33	=33	=33
2F# 2FF#/)	8d#XL 8c# 8A/	.	4.cc#\]	.	.
!	!	!	!LO:TX:a:i:t=espr.	!	!
.	8d# 8c# 8A/	.	.	.	.
.	8d# 8c# 8A/	.	.	.	.
.	8d# 8c# 8A/	.	8f#/	-tu	.
(4FF##X/	8d# 8c# 8A/	.	8.b/	czu-	.
.	8d#J 8c# 8A/	[[	.	.	.
.	.	.	16a/	-ję	.
=34	=34	=34	=34	=34	=34
*	*^	*	*	*	*
*	*	*^	*	*	*	*
*xywh-#4:397,1993,2355,815	*xywh-#4:397,1993,2355,815	*xywh-#4:397,1993,2355,815	*xywh-#4:397,1993,2355,815	*xywh-#4:397,1993,2355,815	*xywh-#4:397,1993,2355,815	*xywh-#4:397,1993,2355,815	*
!	!	!	!	!	!	!	!LO:DY:a
2GG#/)	8d#XL 8c# 8G#/	4ryy	4ryy	.	[2g#/	lód.	>
.	8d#J 8c# 8G#/	.	.	.	.	.	.
.	(4.d#/	8c#\L	2G#</	<	.	.	.
.	.	8A#X\J	.	.	.	.	.
4GG# 4GGG#/	.	4B#X\	.	[ >	8g#/]	.	]
.	8f#/	.	.	]]	8r	.	.
*	*v	*v	*v	*	*	*	*
!!LO:LB:g=original
=35	=35	=35	=35	=35	=35
*xywh-#4:420,2789,2336,767	*xywh-#4:420,2789,2336,767	*xywh-#4:420,2789,2336,767	*xywh-#4:420,2789,2336,767	*xywh-#4:420,2789,2336,767	*
[2.C# [2.CC#/	8e 8c# 8G#/)	.	2.r	.	.
!	!	!LO:HP:t=dim.	!	!	!
.	4g# 4e 4c#'/	>	.	.	.
.	4g# 4e 4c#'/	.	.	.	.
.	8g# 8e 8c#'/	.	.	.	.
=36	=36	=36	=36	=36	=36
4C#_ 4CC#/_	8g#L 8e 8c#/	.	2.r	.	.
.	[8g#J [8e [8c#'/	pp	.	.	.
8C#] 8CC#/]	2g#_ 2e_ 2c#/_	.	.	.	.
8r	.	.	.	.	.
4r	.	.	.	.	.
=37	=37	=37	=37	=37	=37
!	!	!	!LO:TX:a:i:t=Tempo I.	!	!
4FF#/	8.g#]L 8.e] 8.c#/]	.	2.r	.	.
!	!LO:TX:b:i:t=dolce	!	!	!	!
.	(16cc#/Jk	.	.	.	.
4e 4c# 4F#\	8a/L)	.	.	.	.
.	(8e#X/	.	.	.	.
4e 4c# 4F#\	8f#/	.	.	.	.
.	8a/J	.	.	.	.
=38	=38	=38	=38	=38	=38
4BB/	8.g#/L)	.	2.r	.	.
.	(16f#/Jk	.	.	.	.
4d#X 4B 4A\	4.b/	.	.	.	.
4d# 4B 4A\	.	.	.	.	.
.	8a/	.	.	.	.
=39	=39	=39	=39	=39	=39
4EE/	8g#/)	<	2.r	.	.
.	(4b\	.	.	.	.
4dn 4A 4E\	.	.	.	.	.
.	8cc#\	.	.	.	.
4d 4F# 4E\	8.ee\L	.	.	.	.
.	16dd\Jk	[[	.	.	.
=40	=40	=40	=40	=40	=40
4EE#X/	(2.cc#;\)	>]	4r	.	.
!	!	!	!	!	!LO:DY:a:rj
[4c# [4G# [4E#X;\	.	.	4.cc#;\	I	p
8c#] 8G#] 8E#\]	.	.	.	.	.
8r	.	.	8a/	o	.
!!LO:PB:g=original
=41	=41	=41	=41	=41	=41
*xywh-#5:398,388,2342,683	*xywh-#5:398,388,2342,683	*xywh-#5:398,388,2342,683	*xywh-#5:398,388,2342,683	*xywh-#5:398,388,2342,683	*xywh-#5:398,388,2342,683
!	!LO:TX:a:i:t=a tempo	!	!	!	!
4FF#/	8cc#\)	.	4g#/	pa-	.
.	8r	.	.	.	.
4r	4a 4f# 4c#/	.	4f#/	-da	.
!	!	!	!	!	!LO:HP:a
4r	4f# 4c# 4A/	.	8a/	ró-	<
.	.	.	8cc#\	-ża	.
=42	=42	=42	=42	=42	=42
4C# 4CC#/	4r	.	4.ee\	bla-	[
4r	4a 4e 4A/	.	.	.	.
.	.	.	8dd#X\	-da	.
4F# 4FF#/	4a 4d 4A/	.	8ddn\	Roz-	.
.	.	.	8a/	-sy-	.
=43	=43	=43	=43	=43	=43
4E 4EE/	4r	.	4.cc#\	-pa-	.
4r	4g# 4c# 4A/	.	.	.	.
.	.	.	8f#/	-la	.
4D 4DD/	4f# 4d 4A/	.	8g#/	list-	.
.	.	.	8a/	-ki	.
=44	=44	=44	=44	=44	=44
4AA 4AAA/	4r	.	[4cc#\	swe	.
4r	4e 4c# 4A/	.	8cc#\]	.	.
.	.	.	8r	.	.
!	!	!	!LO:TX:a:i:t=poco animato	!	!
4r	4e 4c# 4A/	.	8a/	Po-	.
.	.	.	8cc#\	-fru-	.
=45	=45	=45	=45	=45	=45
4D 4DD/	4r	.	4b/	-nę-	.
4r	4f# 4B 4F#/	.	4f#/	-ły,	.
4r	4e 4A#X 4F#/	.	8cc#\	o-	.
.	.	.	8ee\	-trzą-	.
!!LO:LB:g=original
=46	=46	=46	=46	=46	=46
*xywh-#5:398,1072,2342,674	*xywh-#5:398,1072,2342,674	*xywh-#5:398,1072,2342,674	*xywh-#5:398,1072,2342,674	*xywh-#5:398,1072,2342,674	*xywh-#5:398,1072,2342,674
4BB 4BBB/	4r	.	4dd\	-snę-	.
4r	4d 4B 4F#/	.	4f#/	-ły	.
4r	4e 4A#X 4Gn/	.	8a#X/	je-	.
.	.	.	8cc#\	-dną	.
=47	=47	=47	=47	=47	=47
4BB 4BBB/	4r	.	4.b\	wiel-	.
!	!	!	!	!	!LO:HP:a
4r	4d 4B 4F#/	<	.	.	<
.	.	.	8cc#\	-ką	.
4C# 4CC#/	4e 4A#X 4F#/	[[	8ee\	ro-	.
.	.	.	8dd\	-sy	[[
=48	=48	=48	=48	=48	=48
4D 4DD/	4r	.	[4ff#\	łzę.	.
!	!LO:TX:b:i:t=dolce	!	!	!	!
(4B 4F# 4D\	8r	.	8ff#\]	.	.
.	(8ff#\	.	8r	.	.
4c# 4Gn 4E\)	8a#X\L	>	4r	.	.
.	8cc#\J	.	.	.	.
=49	=49	=49	=49	=49	=49
4D 4DD/	[4b\)	.	4r	.	.
[4B [4F# [4D\	8b\]	]	4r	.	.
.	8r	.	.	.	.
4B] 4F#] 4D\]	4r	.	8f#/	O-	.
.	.	.	8g#/	-trzą-	.
=50	=50	=50	=50	=50	=50
4C# 4CC#/	4r	p	4.a/	-snę-	.
4r	4f# 4c# 4A/	.	.	.	.
!	!	!	!	!	!LO:HP:a
.	.	.	8f#/	-ły	<
4r	4f# 4c# 4A/	.	8a/	je-	.
.	.	.	8cc#\	-dną	[[
!!LO:LB:g=original
=51	=51	=51	=51	=51	=51
*xywh-#5:403,1746,2337,707	*xywh-#5:403,1746,2337,707	*xywh-#5:403,1746,2337,707	*xywh-#5:403,1746,2337,707	*xywh-#5:403,1746,2337,707	*
!	!	!	!LO:TX:a:i:t=con duolo	!	!
4FF# 4FFF#/	4r	.	4.ee\	wiel-	.
4r	4a 4e 4A/	.	.	.	.
.	.	.	8dd#X\	-ką	.
4F# 4FF#/	4a 4d 4A/	.	8ddn\	ro-	.
.	.	.	8a/	-sy	.
=52	=52	=52	=52	=52	=52
4E 4EE/	4r	.	[4cc#\	łzę,	.
4r	4g# 4c# 4A/	.	8cc#\]	.	.
.	.	.	8f#/L	je-	.
4D 4DD/	4f# 4d 4A/	.	8g#/J	.	.
.	.	.	8a/	-dną	.
=53	=53	=53	=53	=53	=53
4AA 4AAA/	4r	.	[2cc#\	ro-	.
4r	4e 4c# 4A/	<	.	.	.
(4GG# (4GGG#/	(4e#X [4c# (4B/	.	8cc#\]	.	<
.	.	.	8b\	-sy	.
=54	=54	=54	=54	=54	=54
4FF# 4FFF#/))	8f#L 8c#] 8A/))	.	[4a/	łzę.	.
.	8f# 8c# 8A/	.	.	.	.
2r	8f# 8c# 8A/	.	8a/]	.	.
.	8f# 8c# 8A/	.	8r	.	.
.	8f# 8c# 8A/	.	8a/	O-	.
.	8f#J 8c# 8A/	[	8cc#\	-trzą-	[[
=55	=55	=55	=55	=55	=55
4r	8f#L 8c# 8A/	.	4.ff#\	-snę-	.
.	8f#J 8c# 8A/	.	.	.	.
(4FF#/	8f#L 8c# 8A/	.	.	.	.
.	8e#XJ 8c# 8A/	.	8ee#X\	-ły	.
4GG#/	8enL 8B 8G#/	.	8een\	je-	.
.	8eJ 8B 8G#/	.	8b\	-dną	.
!!LO:LB:g=original
=56	=56	=56	=56	=56	=56
*xywh-#5:398,2429,2333,725	*xywh-#5:398,2429,2333,725	*xywh-#5:398,2429,2333,725	*xywh-#5:398,2429,2333,725	*xywh-#5:398,2429,2333,725	*
!	!	!	!	!	!LO:HP:a
4.BB/)	8dL 8B 8F#/	>	4.dd\	wiel-	>
.	8dJ 8B 8F#/	.	.	.	.
.	8dL 8B 8F#/	.	.	.	.
(8C#/	8c#J 8A 8F#/	.	8cc#\	-ką	.
[4D/	8B#XL 8G# 8F#/	.	8b#X\	ro-	.
.	8B#J 8G# 8F#/	.	8g#/	-sy	.
=57	=57	=57	=57	=57	=57
(4D/]	8BnL 8G# 8F#/	]	2b\	łzę	]
.	8BJ 8G# 8F#/	.	.	.	.
8C#/))	8B 8G# 8E#X/	.	.	.	.
8r	8r	.	.	.	.
!	!	!	!	!	!LO:DY:a:rj
4r	4r	.	8a/	je-	p
.	.	.	8g#/	-dną	.
*	*clefF4	*	*	*	*
=58	=58	=58	=58	=58	=58
*	*^	*	*	*	*
*xywh-#5:398,2429,2333,725	*xywh-#5:398,2429,2333,725	*xywh-#5:398,2429,2333,725	*xywh-#5:398,2429,2333,725	*xywh-#5:398,2429,2333,725	*xywh-#5:398,2429,2333,725	*
!	!	!	!	!	!	!LO:HP:a
(2.C# (2.CC#/	4r	4ryy	<	[2cc#\	ro-	<
.	([2c# 2B/	(4D#X\	.	.	.	.
.	.	4E#X\	.	8cc#\]	.	.
.	.	.	[[	8a/	-sy	[
=59	=59	=59	=59	=59	=59	=59
4FF# 4FFF#/))	8.c#]L 8.A/)	8F#\)	.	[4f#/	łzę.	.
*	*clefG2	*	*	*	*	*
.	.	8ryy	.	.	.	.
.	(16cc#/Jk	.	p	.	.	.
4e 4c# 4F#\	8a/L)	2ryy	.	8f#/]	.	.
.	(8e#X/	.	.	8r	.	.
4e 4c# 4F#\	8f#/	.	.	4r	.	.
.	8a/J	.	.	.	.	.
*	*v	*v	*	*	*	*
=60	=60	=60	=60	=60	=60
4BB/	8.g#/L)	.	2.r	.	.
.	(16f#/Jk	.	.	.	.
4d#X 4B 4A\	4.b/	.	.	.	.
4d# 4B 4A\	.	.	.	.	.
.	8a/	.	.	.	.
!!LO:LB:g=original
=61	=61	=61	=61	=61	=61
*xywh-#5:403,3132,2337,480	*xywh-#5:403,3132,2337,480	*xywh-#5:403,3132,2337,480	*xywh-#5:403,3132,2337,480	*xywh-#5:403,3132,2337,480	*
4EE/	8g#/)	.	2.ryy	.	.
.	(4b\	.	.	.	.
4dn 4A 4E\	.	.	.	.	.
.	8cc#\	<	.	.	.
4d 4F# 4E\	8.ee\L	.	.	.	.
.	16dd\Jk	.	.	.	.
=62	=62	=62	=62	=62	=62
4EE#X/	4.cc#\)	.	2.ryy	.	.
4c# 4G# 4E#X\	.	.	.	.	.
.	(8g#/	.	.	.	.
4d 4A 4F#\	8a/L	[	.	.	.
.	(8qcc#/	.	.	.	.
.	8b/J)	.	.	.	.
=63	=63	=63	=63	=63	=63
!	!LO:TX:b:i:t=espr.	!	!	!	!
4EE#X/	4.cc#\)	.	2.ryy	.	.
4c# 4G# 4E#X\	.	.	.	.	.
.	(8g#/	.	.	.	.
4B#X 4A 4F#\	12a\L	.	.	.	.
.	12ee\	.	.	.	.
.	12dd\J	.	.	.	.
=64	=64	=64	=64	=64	=64
*	*^	*	*	*	*
*xywh-#5:403,3132,2337,480	*xywh-#5:403,3132,2337,480	*xywh-#5:403,3132,2337,480	*xywh-#5:403,3132,2337,480	*xywh-#5:403,3132,2337,480	*	*
4CC#/	[2.cc#/)	4.cc#\	.	2.ryy	.	.
4B 4F# 4C#\	.	.	.	.	.	.
.	.	(<8d#X\L	>	.	.	.
4B 4E#X 4C#\	.	8e#X\	.	.	.	.
.	.	(<8qb/	.	.	.	.
.	.	8a\J)	]]	.	.	.
=65	=65	=65	=65	=65	=65	=65
!	!	!	!LO:HP:t=dim.	!	!	!
4FF#/	2.cc#/_	8.g#\L)	>	2.ryy	.	.
.	.	((16dn\Jk	.	.	.	.
4A 4F#\	.	[4f#\)	.	.	.	.
!	!	!LO:TUP:a	!	!	!	!
4B 4G# 4F#\	.	12f#\L]	.	.	.	.
.	.	12g#\	.	.	.	.
.	.	12d\J	.	.	.	.
=66	=66	=66	=66	=66	=66	=66
4FF#/	2.cc#;/]	2.f#\)	pp	2.ryy	.	.
2c# 2A 2F#;\	.	.	.	.	.	.
*	*v	*v	*	*	*	*
==	==	==	==	==	==
*-	*-	*-	*-	*-	*-
!!!system-decoration: <s1>{(s2,s3)}
!!!RDF**kern: > = above
!!!RDF**kern: < = below
!!!ENC: Andrzej Gręziak
!!!END: 2022-03-23
!!!ENC: Andrzej Kubiczek
!!!END: 2022-03-27
!!!YEC: Copyright 2022 Narodowy Instytut Fryderyka Chopina (https://polishscores.org)
!!!YEM: License CC-BY-4.0 (https://creativecommons.org/licenses/by/4.0)
!!!IIIF: https://polona.pl/iiif/item/NzEzNTMxMTM/manifest.json
!!!IIIF: ENC-iiif:Magdalena Agnieszka Krok
!!!IIIF: END-iiif:2022-10-05
